X:1
T:Je suis ayme de
T:Je suis ayme de 
T:Cornelius Canis
C:Cornelius Canis
%%score [ 1 [ 2 3 ] 4 ]
L:1/8
Q:1/4=110
M:2/2
K:C
V:1 treble nm="Superius" snm="S"
V:2 treble-8 nm="Tenor 1" snm="T 1"
V:3 treble-8 nm="Tenor 2" snm="T 2"
V:4 bass nm="Bassus" snm="B"
V:1
 z8 | A4 G2 D2 | E2 G2 G2 F2 | EDEF GE A2- | A2 G2 A2 F2 | E2 D2 C4 | z8 | z4 A4 | G2 D2 E2 c2 | %9
w: |Je suis ay-|mé de la plus|bel- * * * * * *|* * le, je|suis ay- mé,||je|suis ay- mé de|
 B2 A2 G2 B2- | BA A4 G2 | A2 A2 c2 c2 | B2 G2 A2 B2 | E2 A4 G2 | A3 G/F/ E4 | z2 D2 D2 D2 | %16
w: la plus bel- *||le qui soit vi-|vant des- soubz les|_ _ _|* * * cieulx,|en- con- tre|
 F2 F2 E2 F2 | ED D4 C2 | D4 z2 A2 | A2 A2 D2 A2 | _B2 A2 G2 C2 | D2 F4 ED | E2 A2 A2 A2 | %23
w: tous faulx en- nuy-||eulx, en-|con- tre tous faulx|en- nuy- * *||eulx, en- con- tre|
 D2 A2 _B2 A2 | G2 F2 G2 _B2- |"^b" BA A4 G2 | A4 z2 B2 | A3 G F2 E2 | GF ED E4 | D2 A2 G3 F | %30
w: tous faulx en- nuy-|||eulx je|la sous- tien- dray-|es- * tre _ tel-|le, je la sous-|
 E2 C2 F2 F2 | D2 G3 FED | CA, D4 C2 | D4 z2 _B2 | A3 G F2 E2 | GF ED E4 | D2 A2 G3 F | %37
w: tien- dray es- tre|tel- * * * *||le, je|la sous- tien- dray|es- * tre _ tel-|le, je la sous-|
 E2 C2 F2 F2 | D2 G3 FED |"^#" CA, D4 C2 | D8 |] %41
w: tien- dray es- tre|tel- * * * *||le.|
V:2
 d4 c2 G2 | A2 c2 c2 B2 | A2 GA Bc d2- | d2 c2 d3 c | B4 A2 D2 | G3 F E4 | z2 G2 c2 d2 | ed d4 c2 | %8
w: Je suis ay-|mé de la plus|bel- * * * * *||* le, je|suis ay- mé|de la plus|bel- * * *|
 BA d4 c2 | d2 f2 e4 | d4 z2 e2 | f2 f2 e2 c2 | d2 e2 A2 e2- | ed f4 ed | c2 d4 c2 | d4 z4 | %16
w: ||le qui|soit vi- vant des-|soubz les _ _|_ _ _ _ _||cieulx,|
 z2 A2 c2 c2 |"^b" B2 G2 A2 A2 | F8 | z4 d4 | d2 d2 G2 e2 | f2 ed c2 d2- | d2 c2 f4 | z2 e4 f2 | %24
w: qui soit vi-|vant des- soubz les|cieulx,|en-|con- tre tous faulx|en- nuy- * * *|* * eulx,|faulx en-|
 e2 d2 z4 | f4 e3 d | c2 A2 d2 d2 | c2 A3 Bcd | e2 d4 c2 | d4 B2 G2 | c4 A2 F2 | _B4 G4 | %32
w: nuy- eulx|je la sous-|tien- dray es- tre|tel- * * * *||le, es- tre|tel- * *|* le,|
 z2 _B2 A3 G | F2 D2 d2 d2 | c2 A3 Bcd | e2 d4 c2 | d4 B2 G2 | c4 A2 F2 | _B4 G4 | A2 B2 A4 | A8 |] %41
w: je la sous-|tien- dray es- tre|tel- * * * *||le, je la|sous- tien- dray|es- tre|tel- * *|le.|
V:3
 z8 | z8 | z8 | A4 G2 D2 | E4 z4 | z4 A4 | G2 D2 E2 G2 | G2 F2 E3 F | G2 _B2 A4 | z2 d2 B4 | %10
w: |||Je suis ay-|mé,|je|suis ay- mé de|la plus bel- *|* * le,|de- la|
 G2 A2 B4 | A8 | z8 | z8 | z8 | A4 _B2 B2 | A2 F2 G2 A2 | D4 E4 | D8 | z8 | z8 | z4 A4 | %22
w: plus _ bel-|le||||qui soit vi-|vant des- soubz _|les _|cieulx|||en-|
 A2 A2 D2 A2 |"^b" B2 A2 G2 F2 |"^b" G2 D2 d2 cB | c2 d2 B4 | A4 z4 | z8 | z2 _B2 A3 G | F2 D2 G4 | %30
w: con- tre tous faulx|en- nuy- * *|||eulx||je la sous-|tien- * dray|
 A3 G F2 D2 | G3 F ED C2 | F2 G2 E4 | D4 z4 | z8 | z2 _B2 A3 G | F2 D2 G4 | A3 G F2 D2 | %38
w: es- tre tel- *|||le,||je la sous-|tien _ dray|es- tre tel- *|
 G3 F ED C2 | F2 G2 E4 | D8 |] %41
w: ||le.|
V:4
 z8 | z8 | z8 | z8 | z4 D,4 | C,2 G,,2 A,,2 C,2 |"^#" C,2 B,,2 A,,2 G,,2 | C,2 D,2 A,,4 | %8
w: ||||Je|suis ay- mé de|la plus bel- *|* * le,|
 z4 z2 A,2 | G,2 D,2 E,2 G,2 | G,2 F,2 E,4 | A,,8 | z8 | A,4 _B,2 B,2 | A,2 F,2 G,2 A,2 | %15
w: je|suis ay- mé de|la plus bel-|le||qui soit vi-|vant des- soubz les|
 D,3 C, _B,,2 G,,2 |"^b" D,4 C,2 B,,A,, |"^b" B,,4 A,,4 | z2 A,2 A,2 A,2 | D,2 A,2 _B,2 A,2 | %20
w: _ _ _ _||* cieulx,|vi- vant des-|soubz les _ _|
 G,2 F,2 E,4 | D,4 z4 | z8 | z4 z2 A,2 |"^b" B,2 A,2 G,4 | F,2 D,2 E,4 | A,,4 z4 | z8 | z8 | %29
w: _ _ _|cieulx,||en-|con- tre tous|faulx en- nuy-|eulx,|||
 F,4 E,3 D, | C,2 A,,2 D,2 D,2 |"^b""^b" B,,2 G,,2 C,3 B,, | A,,2 G,,2 A,,4 | D,8 | z8 | z8 | %36
w: je la sous-|tien- dray es- tre|tel- * * *||le,|||
 F,4 E,3 D, | C,2 A,,2 D,2 D,2 |"^b" B,,2 G,,2 C,3 B,, | A,,2 G,,2 A,,4 | D,8 |] %41
w: je la sous-|tien- dray es- tre|tel- * * *||le.|

